!!!COM: Palestrina, Giovanni Perluigi da
!!!OPR: De Beata Marie Virginis (III)
!!!OTL: Credo
**kern	**kern	**kern	**kern	**kern
*Ibass	*Itenor	*Itenor	*Icalto	*Icant
!Bassus	!Tenor 2	!Tenor 1	!Altus	!Cantus
*clefF4	*clefGv2	*clefGv2	*clefG2	*clefG2
*k[]	*k[]	*k[]	*k[]	*k[]
*G:mix	*G:mix	*G:mix	*G:mix	*G:mix
*M4/2	*M4/2	*M4/2	*M4/2	*M4/2
=1	=1	=1	=1	=1
0r	0r	1g	0r	2r
.	.	.	.	2g
.	.	2g	.	2b
.	.	2e	.	2cc
=2	=2	=2	=2	=2
1G	2r	4d	0r	1dd
.	.	4c	.	.
.	2G	4B	.	.
.	.	4A	.	.
2G	2B	1G	.	2dd
2E	2c	.	.	2gg
=3	=3	=3	=3	=3
1.D	1d	2.A	0r	2.ff
.	.	4G	.	8ee
.	.	.	.	8dd
.	2d	4A	.	2ff
.	.	4B	.	.
2C	2g	2c	.	[2ee
=4	=4	=4	=4	=4
1D	2.f	2A	0r	4ee]
.	.	.	.	4dd
.	.	2a	.	1dd
.	8e	.	.	.
.	8d	.	.	.
1A	2f	2.a	.	.
.	[2e	.	.	2cc#
.	.	4g	.	.
=5	=5	=5	=5	=5
1B-	4e]	2f	1r	1dd
.	4d	.	.	.
.	1d	4e	.	.
.	.	4d	.	.
1A	.	1e	[1a	1r
.	2c#	.	.	.
=6	=6	=6	=6	=6
2r	1d	1.f	2a]	1r
1d	.	.	2d	.
.	1r	.	2a	[1dd
2G	.	2d	2g	.
=7	=7	=7	=7	=7
2d	0r	0r	2f	2dd]
2c	.	.	4e	2g
.	.	.	4f	.
2B	.	.	4g	2dd
.	.	.	4f	.
[2c	.	.	4e	2cc
.	.	.	4d	.
=8	=8	=8	=8	=8
2c]	1g	0r	2c	2ee
2B	.	.	2d	2.dd
1A	1c	.	2e	.
.	.	.	.	4cc
.	.	.	4d	[2cc
.	.	.	4c	.
=9	=9	=9	=9	=9
1G	1.g	2r	1d	2cc]
.	.	1d	.	2b
1r	.	.	1G	2b
.	2g	2G	.	[2dd
=10	=10	=10	=10	=10
0r	2f	2d	2r	2dd]
.	2e	2c	1g	2g
.	2d	2B	.	2dd
.	[2e	2A	2c	2cc
=11	=11	=11	=11	=11
0r	4e]	2G	2g	2b
.	4d	.	.	.
.	4c	4A	2e	1cc
.	4B	4B	.	.
.	2A	4c	2f#	.
.	.	4A	.	.
.	2B	2d	[2g	2b
=12	=12	=12	=12	=12
1r	2c	2r	2g]	1a
.	2d	1d	2f#	.
2r	2G	.	1g	1b
[2G	[2B	2e	.	.
=13	=13	=13	=13	=13
2G]	2B]	2d	2r	0r
2A	2c	2c	1e	.
2G	2B	4g	.	.
.	.	8f#	.	.
.	.	8g	.	.
2F	2A	[2a	2f	.
=14	=14	=14	=14	=14
1G	1B	4a]	2e	0r
.	.	4g	.	.
.	.	1g	2d	.
2C	1A	.	2e	.
[2c	.	2f#	4d	.
.	.	.	4c	.
=15	=15	=15	=15	=15
4c]	2G	1g	2d	1r
8B	.	.	.	.
8A	.	.	.	.
2B	2d	.	2d	.
2c	2e	1r	1g	2r
[2G	[2d	.	.	[2b
=16	=16	=16	=16	=16
2G]	2d]	0r	2r	2b]
2A	2c	.	1e	2cc
2G	2g	.	.	2b
2F	2a	.	2f	2a
=17	=17	=17	=17	=17
1G	1g	2r	2e	2.b
.	.	1B	2d	.
.	.	.	.	4a
2.E	2r	.	1e	1g
.	[2G	2c	.	.
4F	.	.	.	.
=18	=18	=18	=18	=18
2G	2G]	2B	2d	1.dd
2F#	2A	2A	2.d	.
[1G	4G	[1B	.	.
.	4A	.	4c	.
.	4B	.	4B	2dd
.	4c	.	4A	.
=19	=19	=19	=19	=19
2G]	2d	2B]	2G	2.b
4F	2d	4A	2.g	.
4E	.	4G	.	4cc
1D	2.d	2A	.	2dd
.	.	.	8f#	.
.	.	.	8e	.
.	.	2A	2f#	2a
.	4d	.	.	.
=20	=20	=20	=20	=20
[0G	[0d	[0G	[0g	[0b
=21	=21	=21	=21	=21
0G]	0d]	0G]	0g]	0b]
!! Et ex Patre
*Ibass	*Itenor	*Itenor	*Icalto	*Icant
!Bassus	!Tenor 2	!Tenor 1	!Altus	!Cantus
*clefF4	*clefGv2	*clefGv2	*clefG2	*clefG2
*k[]	*k[]	*k[]	*k[]	*k[]
*G:mix	*G:mix	*G:mix	*G:mix	*G:mix
*M4/2	*M4/2	*M4/2	*M4/2	*M4/2
=22	=22	=22	=22	=22
0r	1r	0r	1.g	0r
.	[1d	.	.	.
.	.	.	2f	.
=23	=23	=23	=23	=23
0r	2d]	0r	1e	0r
.	2c	.	.	.
.	2B	.	2d	.
.	2A	.	[2f	.
=24	=24	=24	=24	=24
0r	1c	1.g	4f]	0r
.	.	.	4e	.
.	.	.	2e	.
.	2.d	.	2d	.
.	.	2f	[2a	.
.	4A	.	.	.
=25	=25	=25	=25	=25
0r	2c	2e	2a]	0r
.	2B	2d	2g	.
.	1A	1f	[1cc	.
=26	=26	=26	=26	=26
0r	1G	2.g	2cc]	1.dd
.	.	.	2b	.
.	.	4d	.	.
.	1r	2f	2a	.
.	.	2e	[2g	2cc
=27	=27	=27	=27	=27
0r	0r	2.d	4g]	2b
.	.	.	4f	.
.	.	.	4f	2a
.	.	8c	8e	.
.	.	8B	8d	.
.	.	1A	1e	1cc
=28	=28	=28	=28	=28
1.G	1r	2.B	1d	2.dd
.	.	4c	.	4cc
.	2r	1d	1r	2b
2F	2d	.	.	2a
=29	=29	=29	=29	=29
2E	2G	0r	1r	2.b
2D	2.d	.	.	.
.	.	.	.	8a
.	.	.	.	8g
1F	.	.	2r	1a
.	4d	.	.	.
.	2c	.	2a	.
=30	=30	=30	=30	=30
1G	2.B	0r	2d	2r
.	.	.	2.g	2dd
.	8A	.	.	.
.	8B	.	.	.
1r	2c	.	.	2g
.	.	.	4g	.
.	2d	.	2f	[2dd
=31	=31	=31	=31	=31
1r	1A	1a	2e	4dd]
.	.	.	.	4dd
.	.	.	2f	2cc
1G	1B	2d	2g	2b
.	.	[2g	2d	2b
=32	=32	=32	=32	=32
2C	2c	4g]	2e	1g
.	.	4f	.	.
2.G	4B	1e	1g	.
.	4A	.	.	.
.	2B	.	.	2r
4G	.	.	.	.
2F	2A	[2d	2a	2dd
=33	=33	=33	=33	=33
2E	1G	2d]	2b	2g
2E	.	2c#	4a	2.gg
.	.	.	4g	.
1D	2r	1d	2b	.
.	.	.	.	4gg
.	2d	.	4a	2ff
.	.	.	4b	.
=34	=34	=34	=34	=34
1C	2G	2r	2.cc	4ee
.	.	.	.	4cc
.	2.g	2e	.	2.ee
.	.	.	4b	.
2D	.	2A	1a	.
.	4f	.	.	4dd
2D	2f	[2a	.	2dd
=35	=35	=35	=35	=35
1.A	2e	4a]	2r	2cc#
.	.	4g	.	.
.	2d	2f	1a	1dd
.	1e	2e	.	.
2A	.	2A	2a	2cc#
=36	=36	=36	=36	=36
[0D	[0d	[0A	[0f#	[0dd
=37	=37	=37	=37	=37
0D]	0d]	0A]	0f#]	0dd]
!! Genitum
*Ibass	*Itenor	*Itenor	*Icalto	*Icant
!Bassus	!Tenor 2	!Tenor 1	!Altus	!Cantus
*clefF4	*clefGv2	*clefGv2	*clefG2	*clefG2
*k[]	*k[]	*k[]	*k[]	*k[]
*G:mix	*G:mix	*G:mix	*G:mix	*G:mix
*M4/2	*M4/2	*M4/2	*M4/2	*M4/2
=38	=38	=38	=38	=38
0r	1.g	0r	0r	1r
.	.	.	.	[1dd
.	2g	.	.	.
=39	=39	=39	=39	=39
0r	2f	0r	0r	2dd]
.	2d	.	.	2dd
.	[1f	.	.	2cc
.	.	.	.	2a
=40	=40	=40	=40	=40
0r	2f]	0r	0r	1.cc
.	4e	.	.	.
.	4d	.	.	.
.	4e	.	.	.
.	4f	.	.	.
.	[2g	.	.	4b
.	.	.	.	4a
=41	=41	=41	=41	=41
0r	4g]	1.g	0r	4b
.	4f	.	.	4cc
.	4e	.	.	1dd
.	4d	.	.	.
.	1e	.	.	.
.	.	2g	.	2cc#
=42	=42	=42	=42	=42
1.d	1d	2f	1r	0dd
.	.	2d	.	.
.	1r	1f	[1a	.
2d	.	.	.	.
=43	=43	=43	=43	=43
2c	0r	2.e	2a]	0r
2A	.	.	2a	.
.	.	4d	.	.
[1c	.	4e	2g	.
.	.	4f	.	.
.	.	2g	2e	.
=44	=44	=44	=44	=44
2c]	0r	2e	1.g	1r
4B	.	4d	.	.
4A	.	4c	.	.
4B	.	1d	.	2r
4c	.	.	.	.
[2d	.	.	4f	[2a
.	.	.	4e	.
=45	=45	=45	=45	=45
4d]	1d	0r	2f	2a]
4c	.	.	.	.
2B	.	.	2g	2b
1A	2e	.	2a	1cc
.	[2f	.	[2a	.
=46	=46	=46	=46	=46
0r	2f]	0r	2a]	2dd
.	2g	.	2b	2ee
.	2f	.	2cc	2a
.	2d	.	2dd	[2ff
=47	=47	=47	=47	=47
0r	1f	1r	2cc	4ff]
.	.	.	.	4ee
.	.	.	2a	1dd
.	1e	2r	4g	.
.	.	.	8f	.
.	.	.	8g	.
.	.	[2A	2a	2cc#
=48	=48	=48	=48	=48
1D	1d	2A]	1f#	2dd
.	.	2B	.	2dd
2E	2r	1c	1r	2g
[2F	[2A	.	.	[2cc
=49	=49	=49	=49	=49
2F]	2A]	2d	0r	2cc]
2G	2B	2e	.	2b
2F	2c	2f	.	1a
2D	2d	[2f	.	.
=50	=50	=50	=50	=50
1F	2c	4f]	0r	1a
.	.	4e	.	.
.	2A	1d	.	.
1E	2B	.	.	[1g
.	2G	2c#	.	.
=51	=51	=51	=51	=51
0D	1A	0d	2r	2g]
.	.	.	1a	4f#
.	.	.	.	4e
.	2r	.	.	1f#
.	[2d	.	2a	.
=52	=52	=52	=52	=52
0r	2d]	2r	2d	1f#
.	2d	1d	2a	.
.	2.G	.	1b	2r
.	.	2d	.	[2dd
.	4A	.	.	.
=53	=53	=53	=53	=53
0r	2.B	2.G	2r	2dd]
.	.	.	2.g	2dd
.	4c	4A	.	.
.	2d	2B	.	2.g
.	.	.	4f	.
.	[2g	2c	2e	.
.	.	.	.	4a
=54	=54	=54	=54	=54
0r	4g]	2G	2d	2b
.	4f	.	.	.
.	4e	4c	2c	1cc
.	4d	4d	.	.
.	2c	4e	1g	.
.	.	4f#	.	.
.	2G	[2g	.	2b
=55	=55	=55	=55	=55
1r	1d	4g]	2r	1a
.	.	4f#	.	.
.	.	4f#	1d	.
.	.	8e	.	.
.	.	8f#	.	.
[1G	[1B	[1g	.	1g
.	.	.	2d	.
=56	=56	=56	=56	=56
2G]	2B]	1g]	2G	2r
2G	2B	.	2d	2.gg
2.C	[1c	2.g	2.e	.
.	.	.	.	4ff
.	.	.	.	4ee
4D	.	4f	4f	4dd
=57	=57	=57	=57	=57
2E	2c]	4e	2g	4cc
.	.	4d	.	4b
1F	2c	2.c	1a	4a
.	.	.	.	4g
.	2A	.	.	2f
.	.	4d	.	.
2E	[2c	2e	2g	2g
=58	=58	=58	=58	=58
0D	2c]	2A	2f#	2a
.	2B	2.d	1g	4b
.	.	.	.	4cc
.	1A	.	.	1dd
.	.	4c	.	.
.	.	2A	2f#	.
=59	=59	=59	=59	=59
[0G	[0G	[0B	[0g	[0dd
=60	=60	=60	=60	=60
0G]	0G]	0B]	0g]	0dd]
!! Et incarnatus
*Ibass	*Itenor	*Itenor	*Icalto	*Icant
!Bassus	!Tenor 2	!Tenor 1	!Altus	!Cantus
*clefF4	*clefGv2	*clefGv2	*clefG2	*clefG2
*k[]	*k[]	*k[]	*k[]	*k[]
*G:mix	*G:mix	*G:mix	*G:mix	*G:mix
*M4/2	*M4/2	*M4/2	*M4/2	*M4/2
=61	=61	=61	=61	=61
1r	0r	0r	1g	0r
2r	.	.	2f	.
2G	.	.	2d	.
=62	=62	=62	=62	=62
2F	0r	1d	2.f	0r
2D	.	.	.	.
.	.	.	4g	.
[1F	.	2c	[1a	.
.	.	2A	.	.
=63	=63	=63	=63	=63
2F]	0r	1.c	2a]	0r
4E	.	.	4g	.
4D	.	.	4f	.
1E	.	.	1g	.
.	.	4B	.	.
.	.	4A	.	.
=64	=64	=64	=64	=64
1E	1g	2B	1e	0r
.	.	2c	.	.
[1D	2f	[1d	[1a	.
.	2d	.	.	.
=65	=65	=65	=65	=65
1D]	1.f	2d]	1a]	1dd
.	.	4c	.	.
.	.	4B	.	.
1r	.	[1A	1a	2cc
.	4e	.	.	2a
.	4d	.	.	.
=66	=66	=66	=66	=66
0r	2e	1A]	1a	1.cc
.	2f	.	.	.
.	2.g	1G	1d	.
.	.	.	.	4b
.	4f	.	.	4a
=67	=67	=67	=67	=67
1r	1e	2r	2g	2b
.	.	1g	2g	2cc
2r	1d	.	1a	2.dd
[2d	.	[2f	.	.
.	.	.	.	8cc
.	.	.	.	8b
=68	=68	=68	=68	=68
2d]	0r	2f]	2r	1a
1c	.	2e	2a	.
.	.	1d	1g	2r
2B	.	.	.	[2dd
=69	=69	=69	=69	=69
1A	1r	1a	2f	2dd]
.	.	.	2e	1cc
1G	2r	1d	1g	.
.	2d	.	.	2b
=70	=70	=70	=70	=70
1A	2c	0r	2f	1a
.	2c	.	2.e	.
1B	1d	.	.	1g
.	.	.	4d	.
.	.	.	[2d	.
=71	=71	=71	=71	=71
1A	1e	1r	2d]	[0a
.	.	.	2c#	.
4D	2f	2r	1d	.
4E	.	.	.	.
4F	[2f	[2d	.	.
4G	.	.	.	.
=72	=72	=72	=72	=72
1A	2f]	2d]	2r	1a]
.	2e	2c	1a	.
2r	2f	2d	.	1r
[2d	2d	2B-	2g	.
=73	=73	=73	=73	=73
2d]	2e	2A	1a	1r
2c#	2e	2A	.	.
1d	2d	[1a	1f	2r
.	[2d	.	.	[2ff
=74	=74	=74	=74	=74
1A	2d]	1a]	2r	2ff]
.	2c#	.	1a	2ee
2r	2.d	2r	.	1ff
[2d	.	[2f	2a	.
.	4e	.	.	.
=75	=75	=75	=75	=75
2d]	4f	2f]	2d	2dd
.	4d	.	.	.
2c#	2.a	2e	2A	1ee
2d	.	2f	2.a	.
.	4g	.	.	.
2D	2f	2d	.	[2dd
.	.	.	4a	.
=76	=76	=76	=76	=76
1A	2e	2e	1a	2dd]
.	1A	2e	.	2cc#
2F#	.	1d	1r	2.dd
[2G	2B-	.	.	.
.	.	.	.	4cc
=77	=77	=77	=77	=77
2G]	1G	1r	1g	2b-
4F	.	.	.	4a
4E	.	.	.	4g
1D	1r	1d	1f	[1a
=78	=78	=78	=78	=78
1r	0r	1c	1e	2a]
.	.	.	.	2g
1G	.	1B	[1d	1g
=79	=79	=79	=79	=79
1F	1r	1A	1d]	0r
1E	1g	1G	1c#	.
=80	=80	=80	=80	=80
1D	1f	2A	1d	1r
.	.	2B	.	.
1C	1e	1c	2r	1gg
.	.	.	2e	.
=81	=81	=81	=81	=81
4D	1d	0A	0a	1ff
4E	.	.	.	.
4F	.	.	.	.
4G	.	.	.	.
1A	1c#	.	.	1ee
=82	=82	=82	=82	=82
1D	4d	1.A	2f	1dd
.	4e	.	.	.
.	4f	.	1a	.
.	4d	.	.	.
1A	1e	.	.	1cc#
.	.	2A	2e	.
=83	=83	=83	=83	=83
[0D	[0d	[0A	[0f#	[0dd
=84	=84	=84	=84	=84
0D]	0d]	0A]	0f#]	0dd]
*	*	*	*	*-
!! Et resurrexit
*Itenor	*Itenor	*Icalto	*Icant
!Tenor 2	!Tenor 1	!Altus	!Cantus
*clefGv2	*clefGv2	*clefG2	*clefG2
*k[]	*k[]	*k[]	*k[]
*G:mix	*G:mix	*G:mix	*G:mix
*M3/2	*M3/2	*M3/2	*M3/2
=85	=85	=85	=85
1r	2d	1r	2dd
.	2e	.	2cc
2r	2g	2r	2b
=86	=86	=86	=86
2r	2f	2r	2a
1A	4e	2r	1cc
.	4d	.	.
.	2e	2a	.
=87	=87	=87	=87
2B	1d	2g	1dd
2d	.	2f	.
2c	2r	2e	2r
=88	=88	=88	=88
2B	1r	2d	1r
4A	.	1f	.
4G	.	.	.
2A	2r	.	2r
=89	=89	=89	=89
1G	2d	2g	1r
.	2e	2g	.
2r	2f#	2a	2r
=90	=90	=90	=90
1r	2g	2b	2dd
.	2c	2cc	2ee
2r	2d	2a	2ff#
=91	=91	=91	=91
2d	2G	2.b	1gg
2e	2r	.	.
.	.	4g	.
2f	2d	4a	2ff
.	.	4b	.
=92	=92	=92	=92
2.g	2c	2cc	2ee
.	2G	2b	2dd
4f	.	.	.
2e	2A	2a	2cc#
=93	=93	=93	=93
2d	2B-	2g	2.dd
1e	1A	1a	.
.	.	.	8cc#
.	.	.	8b
.	.	.	2cc#
=94	=94	=94	=94
2d	1d	2f#	1dd
2r	.	2a	.
2d	2r	2a	2r
=95	=95	=95	=95
2d	1r	2d	2dd
2G	.	2.g	2dd
[2c	2r	.	2g
.	.	4f	.
=96	=96	=96	=96
4c]	1r	4e	2.cc
4B	.	4d	.
2A	.	2e	.
.	.	.	4b
2d	2r	2f#	2a
=97	=97	=97	=97
8G	1r	2.g	2b
8A	.	.	.
8B	.	.	.
8c	.	.	.
1d	.	.	1a
.	.	8f#	.
.	.	8e	.
.	2r	2f#	.
=98	=98	=98	=98
1G	2d	1g	2g
.	2d	.	1b
2g	2G	2r	.
=99	=99	=99	=99
2g	2.c	2g	2cc
2c	.	2g	2g
.	4B	.	.
2e	2A	2c	2a
=100	=100	=100	=100
2d	2B	2d	4g
.	.	.	8a
.	.	.	8b
1c	1A	2e	1cc
.	.	2f#	.
=101	=101	=101	=101
[1.d	[1.G	[1.g	[1.b
=102	=102	=102	=102
2d_	2G_	2g_	2b_
1d_	1G_	1g_	1b_
=103	=103	=103	=103
1d]	1G]	1g]	1b]
*-	*-	*-	*-
!! Et iterum
**kern	**kern	**kern	**kern	**kern
*Ibass	*Itenor	*Itenor	*Icalto	*Icant
!Bassus	!Tenor 2	!Tenor 1	!Altus	!Cantus
*clefF4	*clefGv2	*clefGv2	*clefG2	*clefG2
*k[]	*k[]	*k[]	*k[]	*k[]
*G:mix	*G:mix	*G:mix	*G:mix	*G:mix
*M4/2	*M4/2	*M4/2	*M4/2	*M4/2
=104	=104	=104	=104	=104
0r	0r	1c	1g	1ee
.	.	2.g	2.b	2.dd
.	.	4g	4b	4dd
=105	=105	=105	=105	=105
0r	0r	2g	2b	2ee
.	.	2a	2cc	2ff
.	.	2g	2b	2ee
.	.	2f	2a	2dd
=106	=106	=106	=106	=106
1C	1c	2.e	0g	1ee
.	.	8d	.	.
.	.	8c	.	.
2.G	2.d	[1B	.	1r
4G	4d	.	.	.
=107	=107	=107	=107	=107
2G	2e	2B]	1r	0r
2A	2f	2c	.	.
2G	2e	2B	2r	.
2F	2d	2A	2a	.
=108	=108	=108	=108	=108
2E	2e	1B	2.g	1r
2G	2d	.	.	.
.	.	.	4f	.
2c	4e	1r	2e	1g
.	4f	.	.	.
2B	[2g	.	2d	.
=109	=109	=109	=109	=109
1A	2g]	1r	2.c	1.cc
.	2f#	.	.	.
.	.	.	4d	.
1G	1g	2r	4e	.
.	.	.	4f#	.
.	.	2d	2g	4b
.	.	.	.	4a
=110	=110	=110	=110	=110
0r	0r	2g	2e	2b
.	.	2f	2.a	2.cc
.	.	1e	.	.
.	.	.	4g	4b
.	.	.	[2g	2g
=111	=111	=111	=111	=111
1r	2r	1d	2g]	2a
.	1d	.	2f#	2a
[1G	.	2r	[1g	1b
.	2B	2d	.	.
=112	=112	=112	=112	=112
2G]	2d	2B	1g]	0r
2E	2c	1e	.	.
2G	2B	.	1r	.
2F	2A	2d	.	.
=113	=113	=113	=113	=113
2E	2B	2e	0r	0r
2D	2.d	2f	.	.
1E	.	1g	.	.
.	4c	.	.	.
.	[2c	.	.	.
=114	=114	=114	=114	=114
2.D	2c]	2.f	0r	1r
.	2B	.	.	.
4D	.	4f	.	.
[1C	[1c	2e	.	2r
.	.	[2e	.	[2gg
=115	=115	=115	=115	=115
0C]	0c]	2e]	1.g	2gg]
.	.	2c	.	2ee
.	.	2.e	.	2.gg
.	.	.	2e	.
.	.	4d	.	4ff
=116	=116	=116	=116	=116
0r	2r	2c	2g	2ee
.	2a	2d	2f	2dd
.	2a	2A	2e	2cc
.	2g	4B	2d	[2dd
.	.	8A	.	.
.	.	8B	.	.
=117	=117	=117	=117	=117
1r	1.g	2c	1e	4dd]
.	.	.	.	4cc
.	.	2c	.	1cc
2r	.	1G	[1d	.
[2G	2g	.	.	4b
.	.	.	.	4a
=118	=118	=118	=118	=118
2G]	1g	2r	2d]	2b
2G	.	1g	2d	2b
1C	2r	.	2c	[1cc
.	2G	2g	2e	.
=119	=119	=119	=119	=119
2E	2G	1c	2e	1cc]
2F	2A	.	2cc	.
2G	2B	2e	2b	1r
2A	2c	2f	2a	.
=120	=120	=120	=120	=120
2B	2G	2d	2g	1r
1c	2A	2c	2f#	.
.	1G	[1d	1g	2r
4B	.	.	.	[2dd
4A	.	.	.	.
=121	=121	=121	=121	=121
1B	1G	1d]	1g	2dd]
.	.	.	.	2dd
2.c	1r	2e	2r	1g
.	.	2c	[2g	.
8B	.	.	.	.
8A	.	.	.	.
=122	=122	=122	=122	=122
2G	0r	2d	4g]	2b
.	.	.	4f	.
2C	.	2e	2e	2cc
2D	.	2f#	2d	2a
2E	.	[2g	2B	2g
=123	=123	=123	=123	=123
1D	2r	2g]	1d	1a
.	1d	2f#	.	.
[1G	.	2g	[1B	1g
.	2d	[2d	.	.
=124	=124	=124	=124	=124
1G]	1G	2d]	1B]	2r
.	.	2d	.	2.gg
2r	2B	2G	2d	.
.	.	.	.	4ff
2C	2c	2G	2e	2ee
=125	=125	=125	=125	=125
2D	2A	2r	2f#	2dd
2E	2G	2G	1g	2cc
1D	1A	2d	.	1dd
.	.	2d	2f#	.
=126	=126	=126	=126	=126
[0G	[0G	[0d	[0g	[0b
=127	=127	=127	=127	=127
1G_	1G_	1d_	1g_	1b_
1G_	1G_	1d_	1g_	1b_
=128	=128	=128	=128	=128
0G]	0G]	0d]	0g]	0b]
!! Qui cum Patre
*Ibass	*Itenor	*Itenor	*Icalto	*Icant
!Bassus	!Tenor 2	!Tenor 1	!Altus	!Cantus
*clefF4	*clefGv2	*clefGv2	*clefG2	*clefG2
*k[]	*k[]	*k[]	*k[]	*k[]
*G:mix	*G:mix	*G:mix	*G:mix	*G:mix
*M4/2	*M4/2	*M4/2	*M4/2	*M4/2
=129	=129	=129	=129	=129
0r	1G	0r	0r	0r
.	1B	.	.	.
=130	=130	=130	=130	=130
1r	1c	0r	0r	1g
1G	1d	.	.	1b
=131	=131	=131	=131	=131
1E	2e	0r	1g	1cc
.	1g	.	.	.
1D	.	.	1a	1dd
.	2f	.	.	.
=132	=132	=132	=132	=132
4C	1e	1G	1cc	2ee
4D	.	.	.	.
4E	.	.	.	1gg
4F	.	.	.	.
1G	1d	1B	1b	.
.	.	.	.	2ff
=133	=133	=133	=133	=133
2A	1r	1c	2r	1ee
1c	.	.	2e	.
.	1G	1d	2.g	1dd
2B	.	.	.	.
.	.	.	4f	.
=134	=134	=134	=134	=134
1.c	2.g	2e	4e	1r
.	.	.	4c	.
.	.	1g	1cc	.
.	4f	.	.	.
.	2e	.	.	2r
2d	2d	2f	2b	[2dd
=135	=135	=135	=135	=135
1A	2e	1e	2.a	2dd]
.	2A	.	.	2cc
.	.	.	4g	.
1D	2r	2.d	1f	1dd
.	[2d	.	.	.
.	.	8c	.	.
.	.	8B	.	.
=136	=136	=136	=136	=136
1r	2d]	1A	1.a	1ee
.	2c#	.	.	.
[1D	[1d	1r	.	2.ff
.	.	.	2b-	.
.	.	.	.	8ee
.	.	.	.	8dd
=137	=137	=137	=137	=137
2D]	2d]	1A	1a	2ff
2C#	2e	.	.	2.ee
2D	1f	2A	1a	.
.	.	.	.	4dd
2D	.	[2a	.	[2dd
=138	=138	=138	=138	=138
1A	1e	2a]	2.a	2dd]
.	.	2e	.	2cc#
.	.	.	4g	.
2D	1d	2f#	2a	[1dd
[2G	.	2g	2b-	.
=139	=139	=139	=139	=139
4G]	2r	1d	1a	1dd]
8F#	.	.	.	.
8E	.	.	.	.
2F#	2.d	.	.	.
2G	.	1e	1r	1r
.	8c#	.	.	.
.	8B	.	.	.
2A	2c#	.	.	.
=140	=140	=140	=140	=140
2B	2d	0r	2r	1r
2c#	2e	.	2.a	.
2d	2f#	.	.	2r
.	.	.	8g#	.
.	.	.	8f#	.
2B	2d	.	2g#	[2dd
=141	=141	=141	=141	=141
1A	1e	1r	2a	4dd]
.	.	.	.	8cc#
.	.	.	.	8b
.	.	.	2e	2cc#
1D	1d	2r	1f	1dd
.	.	[2d	.	.
=142	=142	=142	=142	=142
0r	1A	4d]	2e	1ee
.	.	8c#	.	.
.	.	8B	.	.
.	.	2c#	2.a	.
.	1r	2d	.	2ff
.	.	.	8g	.
.	.	.	8f	.
.	.	2e	2g	4ee
.	.	.	.	4dd
=143	=143	=143	=143	=143
0r	0r	2f	2a	2cc
.	.	2d	2.b	2dd
.	.	1e	.	4g
.	.	.	4a	4a
.	.	.	[2g	4b
.	.	.	.	4g
=144	=144	=144	=144	=144
1r	2r	1d	2g]	1a
.	1d	.	2f#	.
[1G	.	[1B	1g	1g
.	2e	.	.	.
=145	=145	=145	=145	=145
2G]	2d	2B]	0r	0r
2A	2c	2c	.	.
2G	2B	2d	.	.
2F	[2c	2A	.	.
=146	=146	=146	=146	=146
2E	4c]	2e	0r	0r
.	4B	.	.	.
1F	4A	1c	.	.
.	4G	.	.	.
.	2A	.	.	.
2E	[2c	2e	.	.
=147	=147	=147	=147	=147
1D	2c]	1f	1r	1dd
.	2B	.	.	.
1C	2c	1e	2r	1ee
.	2c	.	[2g	.
=148	=148	=148	=148	=148
0r	2B	0r	2g]	2dd
.	2A	.	2a	2cc
.	2e	.	2g	2b
.	4A	.	2f	[2cc
.	4B	.	.	.
=149	=149	=149	=149	=149
0r	4c	1r	2e	2cc]
.	4d	.	.	.
.	2e	.	1g	2b
.	2c	2r	.	1a
.	2d	[2d	2f#	.
=150	=150	=150	=150	=150
1G	1.B	2d]	1g	1b
.	.	2e	.	.
2G	.	2d	1g	2dd
2C	2c	2c	.	2ee
=151	=151	=151	=151	=151
2G	2d	2B	1g	2dd
2E	2e	1c	.	2cc
2F#	[1d	.	2a	1dd
2G	.	2B	[2g	.
=152	=152	=152	=152	=152
0D	0d]	0A	2g]	2.dd
.	.	.	4f#	.
.	.	.	4e	4dd
.	.	.	1f#	1dd
=153	=153	=153	=153	=153
[0G	[0d	[0G	[0g	[0b
=154	=154	=154	=154	=154
0G]	0d]	0G]	0g]	0b]
!! Confiteor
*Ibass	*Itenor	*Itenor	*Icalto	*Icant
!Bassus	!Tenor 2	!Tenor 1	!Altus	!Cantus
*clefF4	*clefGv2	*clefGv2	*clefG2	*clefG2
*k[]	*k[]	*k[]	*k[]	*k[]
*G:mix	*G:mix	*G:mix	*G:mix	*G:mix
*M4/2	*M4/2	*M4/2	*M4/2	*M4/2
=155	=155	=155	=155	=155
1d	2r	1f	0r	0r
.	1a	.	.	.
2.c	.	2.e	.	.
.	[2g	.	.	.
4B	.	4d	.	.
=156	=156	=156	=156	=156
2c	2g]	2e	2r	0r
2A	2f	2c	1cc	.
1G	2.g	2d	.	.
.	.	[2g	[2b	.
.	8f	.	.	.
.	8e	.	.	.
=157	=157	=157	=157	=157
0r	1d	2g]	2b]	1dd
.	.	1f	1a	.
.	1r	.	.	2.cc
.	.	4e	4g	.
.	.	4d	4f	4b
=158	=158	=158	=158	=158
1r	1r	2c	2e	2cc
.	.	2d	2f#	2a
1G	2r	2B	1g	[1g
.	2G	2B	.	.
=159	=159	=159	=159	=159
2G	2B	2d	1r	0g]
2C	2c	2e	.	.
2.G	2.B	2.d	2r	.
.	.	.	2g	.
4A	4A	4c	.	.
=160	=160	=160	=160	=160
2B	2G	4d	2g	0r
.	.	4e	.	.
1c	2A	2f	2c	.
.	1G	2e	1g	.
2B	.	2d	.	.
=161	=161	=161	=161	=161
1c	1r	2r	0e	1g
.	.	2g	.	.
1r	2r	2g	.	2b
.	2g	2c	.	2cc
=162	=162	=162	=162	=162
1r	2g	4e	1r	1b
.	.	4f#	.	.
.	2G	1g	.	.
1D	1d	.	2r	1a
.	.	2f#	[2d	.
=163	=163	=163	=163	=163
2.G	2B	2g	2d]	1g
.	1G	2d	1g	.
4F	.	.	.	.
2E	.	2e	.	1r
2A	[2c	4d	2f#	.
.	.	4c	.	.
=164	=164	=164	=164	=164
1G	2c]	1d	2g	2r
.	2B	.	2d	1g
1C	1c	1r	2.e	.
.	.	.	.	[2cc
.	.	.	4f	.
=165	=165	=165	=165	=165
1G	1d	2r	1g	2cc]
.	.	1G	.	2b
1C	1e	.	1g	1cc
.	.	[2c	.	.
=166	=166	=166	=166	=166
1G	2d	2c]	2g	1dd
.	1g	2B	2b	.
1r	.	2c	1a	2ee
.	2f	2d	.	2dd
=167	=167	=167	=167	=167
1C	4e	1e	1g	1gg
.	4d	.	.	.
.	4c	.	.	.
.	4B	.	.	.
2D	2A	2d	2r	2ff
2E	2G	[2g	2b	[2ee
=168	=168	=168	=168	=168
2C	0A	2g]	2cc	2ee]
2D	.	2f	2.a	1dd
1A	.	1e	.	.
.	.	.	4g	.
.	.	.	2e	2cc#
=169	=169	=169	=169	=169
[0D	[0A	[0d	[0f#	[0dd
=170	=170	=170	=170	=170
0D]	0A]	0d]	0f#]	0dd]
!! Et vitam
*Ibass	*Itenor	*Itenor	*Icalto	*Icant
!Bassus	!Tenor 2	!Tenor 1	!Altus	!Cantus
*clefF4	*clefGv2	*clefGv2	*clefG2	*clefG2
*k[]	*k[]	*k[]	*k[]	*k[]
*G:mix	*G:mix	*G:mix	*G:mix	*G:mix
*M4/2	*M4/2	*M4/2	*M4/2	*M4/2
=171	=171	=171	=171	=171
0r	1G	0r	2r	1r
.	.	.	1d	.
.	2B	.	.	1g
.	2c	.	2e	.
=172	=172	=172	=172	=172
0r	2d	0r	2f#	2b
.	2e	.	2g	2cc
.	2d	.	2a	2dd
.	[2c	.	2a	[2ee
=173	=173	=173	=173	=173
0r	2c]	0r	2.g	2ee]
.	2B	.	.	2dd
.	.	.	4d	.
.	2A	.	4e	2cc
.	.	.	4f#	.
.	2G	.	[2g	2b
=174	=174	=174	=174	=174
1D	1d	1r	2g]	1a
.	.	.	2f#	.
2.E	4B	1G	1g	1g
.	4G	.	.	.
.	[2g	.	.	.
4F	.	.	.	.
=175	=175	=175	=175	=175
2G	4g]	2B	1r	1r
.	4f	.	.	.
2A	2e	2c	.	.
4B	2d	2d	2r	1g
8A	.	.	.	.
8B	.	.	.	.
2c	2c	2e	[2g	.
=176	=176	=176	=176	=176
2G	2B	2d	4g]	2b
.	.	.	4f	.
2C	2G	1c	2e	2cc
2.G	2r	.	2d	1dd
.	2G	2B	[2g	.
4F	.	.	.	.
=177	=177	=177	=177	=177
2E	2B	2.G	2g]	1ee
2C	2c	.	2g	.
.	.	4A	.	.
[1G	2d	[1B	[1g	4dd
.	.	.	.	4cc
.	2e	.	.	4b
.	.	.	.	4a
=178	=178	=178	=178	=178
2G]	2d	2B]	2g]	2b
2A	1c	2c	2e	1a
2F	.	[1d	4f	.
.	.	.	4e	.
2G	2B	.	4d	[2g
.	.	.	4c	.
=179	=179	=179	=179	=179
1.D	0A	2d]	1.d	2g]
.	.	4c	.	4f#
.	.	4B	.	4e
.	.	2A	.	2f#
2D	.	2d	2d	2f#
=180	=180	=180	=180	=180
[0G	[0G	[0B	[0d	[0g
=181	=181	=181	=181	=181
0G]	0G]	0B]	0d]	0g]
=182	=182	=182	=182	=182
0r	0r	0r	1r	1g
.	.	.	1d	[1dd
=183	=183	=183	=183	=183
0r	0r	0r	1.g	2dd]
.	.	.	.	2b
.	.	.	.	2dd
.	.	.	2e	[2ee
=184	=184	=184	=184	=184
0r	0r	0r	2g	4ee]
.	.	.	.	4dd
.	.	.	2.a	4cc
.	.	.	.	4b
.	.	.	.	2cc
.	.	.	4g	.
.	.	.	4f	2a
.	.	.	4e	.
=185	=185	=185	=185	=185
1r	1G	0r	2d	1b
.	.	.	1g	.
1D	[1d	.	.	1a
.	.	.	2f#	.
=186	=186	=186	=186	=186
1.G	2d]	0r	1g	2g
.	2B	.	.	4dd
.	.	.	.	4cc
.	2d	.	2.G	4b
.	.	.	.	4a
2E	[2e	.	.	[2g
.	.	.	4A	.
=187	=187	=187	=187	=187
2G	4e]	0r	2B	4g]
.	4d	.	.	4f
2.A	4c	.	2c	2e
.	4B	.	.	.
.	2c	.	4A	1a
4G	.	.	4B	.
2F	2A	.	4c	.
.	.	.	4d	.
=188	=188	=188	=188	=188
4E	1B	1G	2e	1r
4F#	.	.	.	.
1G	.	.	2d	.
.	1A	[1d	1r	1a
2F#	.	.	.	.
=189	=189	=189	=189	=189
0G	2G	2d]	1d	1.dd
.	4d	2B	.	.
.	4c	.	.	.
.	4B	2d	[1g	.
.	4A	.	.	.
.	2B	[2e	.	2b
=190	=190	=190	=190	=190
2.C	2c	4e]	2g]	1.ee
.	.	4d	.	.
.	1g	4c	2e	.
4D	.	4B	.	.
2E	.	2c	2g	.
2F	4f	2A	[2a	4dd
.	4e	.	.	4cc
=191	=191	=191	=191	=191
1G	0d	1B	4a]	2b
.	.	.	4g	.
.	.	.	1g	2g
1D	.	1A	.	1a
.	.	.	2f#	.
=192	=192	=192	=192	=192
[0G	[0d	[0G	[0g	[0b
=193	=193	=193	=193	=193
0G]	0d]	0G]	0g]	0b]
==	==	==	==	==
*-	*-	*-	*-	*-
!!!CDT: 1525/^1526/-1594/2/2
!!!OCY: Italia
!!!AGN: Mass (Paraphrase)
!!!AST: renaissance, vocal
!!!ASW: Gregorian Mass
!!!PWK: Masses, Book Mantuan I
!!!RNB: Cadence finals: D
!!!YOR: Le Opere Complete, v. 18, p. 162
!!!YOO: Rome, Italy: Fratelli Scalera
!!!END: 1992//
!!!EED: John Miller
!!!YEC: Copyright 2000, John Miller
!!!YEN: United States of America
!!!YEM: Rights to all derivative electronic formats reserved.
!!!YEM: Refer to licensing agreement for further details.
!!!YEM: This file must be accompanied by the licensing agreement.
!!!YEM: A copy of the licensing agreement may be found at http://www.music-cog.ohio-state.edu/HumdrumDatabases/Palestrina/license.txt
!!!EMD: converted to Humdrum by Bret Aarden
